Adwaita++-Dark/actions/16/align-horizontal-right-to-anchor.svg

<svg height="16" viewBox="0 0 16 16" width="16" xmlns="http://www.w3.org/2000/svg">
  <path d="m13 0v2h2v-2zm0 2h-2v1h-10v4h10v4h-10v4h10v1h2z" fill="#e6ddff"/>
</svg>

<svg xmlns="http://www.w3.org/2000/svg" width="16" height="16" viewBox="0 0 16 16">
 <defs>
  <style id="current-color-scheme" type="text/css">
   .ColorScheme-Text { color:#E6DDFF; } .ColorScheme-Highlight { color:#4285f4; }
  </style>
 </defs>
 <path style="fill:currentColor" class="ColorScheme-Text" d="M 13 0 L 13 2 L 15 2 L 15 0 L 13 0 z M 13 2 L 11 2 L 11 3 L 1 3 L 1 7 L 11 7 L 11 11 L 1 11 L 1 15 L 11 15 L 11 16 L 13 16 L 13 2 z"/>
</svg>
